X: 1
T: Green Grow the Rashes
R: strathspey
Z: 2006 John Chambers <jc:trillian.mit.edu>
S: handwritten MS dated 1992 by Barbara McOwen
B: Gow Collection
M: C
L: 1/16
K: G
D \
| "G"GG3 B3A    BG3  G3B | "Am"AA3      e3d     eA3 A3B \
| "C"c3B ce3 "G"d3B  G3B | "Am"ABc2 "B7"B3A "Em"GE3 E3 ||
D \
| "G"G4  B3A    BG3  G3B | "Am"AA3      e3d     eA3 A3B \
| "C"c3B ce3 "G"d3c  B3G | "Am"ABc2 "B7"B3A "Em"GE3 E3 |]
F \
| "G"G4  g3f    gd3  d3g | "Am"ee3      a3g     ae3 e3f \
| "C"g3a g3e "G"d3B  G3B | "Am"ABc2 "B7"B3A "Em"GE3 E3 ||
F \
| "G"G4  g3f    gd3  d3g | "Am"ee3      a3g     ae3 e3f \
| "C"g3a g3e "G"dcBA G3B | "Am"ABc2 "B7"B3A "Em"GE3 E3 |]
